!!!!SEGMENT: pl-wtm--r-1427--009_stefani-jozef--no-19-dona-nobis.krn
!!!cenid: 18xx:2445
!!!COM: Stefani, Józef
!!!COM-rismID: pe30024097
!!!CDT: 1800/04/16-1876/03/19
!!!CNT: Polish
!!!OPR: No. 19
!!!OTL: Dona nobis
!!!OMV: 009
!!!PDT:
!!!AGN: Sacred; Mass
!!!SMS-siglum: PL-Wtm
!!!SMS-shelfmark: R 1427
!!!SMS-shelfwork: 001-009 M
!!!SMS-variant:
!!!SMS-altvar:
!!!NIFC-rismSourceID: 1001116126
!!!NIFC-islandoraID:
!!!URL-pdf-islandora:
!!!URL-scan:
!!!ONB-nifc: UWAGA: części Mszy: 1. Kyrie, 2. Gloria, 3. Graduale, 4. Credo, 5. Offertorium. 6. Sanctus, 7. Benedictus, 8. Agnus Dei, 9. Dona nobis
!!!OMD: Allegro moderato.
!!!AIN: 1 organ 1 vox
!!!key:
**kern	**kern	**kern	**text
*part2	*part2	*part1	*part1
*staff3	*staff2	*staff1	*staff1
*Iorgan	*Iorgan	*Ivox	*
*I"Organo	*I"Organo	*I"Głos	*
*clefF4	*clefG2	*clefG2	*
*k[b-]	*k[b-]	*k[b-]	*
*F:	*F:	*F:	*
=1	=1	=1	=1
*all\right	*all\right	*all\right	*
!	!	!LO:TX:t=P:problem=brak metrum	!
4F 4FF\	4f 4A/	4r	.
4r	4r	4r	.
8F\L	8f/L	8f/	Gdyś-
8E\J	8g/J	8g/	-my
=2	=2	=2	=2
*2\right	*	*	*
[2.F\	2a 2f/	2a/	iuż
.	8b-L 8g/	8b-\	wys-
.	8ccJ 8a/	8cc\	-łu-
=3	=3	=3	=3
4.F\]	4dd 4b-\	4dd\	-cha-
.	8cc 8a\	8cc\	-li
8r	8r	8r	.
4F\	4cc 4a/	4cc\	Mszy
!!LO:LB:g=original
=4	=4	=4	=4
*	*^	*	*
4E\	8cc/L	4g\	(8cc\L	świę-
.	8b-/J	.	8b-\J)	.
4F\	4a/	2f\	4a\	-tej
4D\	4b-/	.	4b-\	o
=5	=5	=5	=5	=5
4.C/	4a 4f/	2ryy	4a/	Bo-
.	8g 8e/	.	8g/	-że
8r	8r	.	8r	.
4C/	8g/L	4e\	8g/	Nie-
.	8cc/J	.	8cc\	-chaj
=6	=6	=6	=6	=6
*	*	*^	*	*
*	*	*2\right	*	*	*
4.G\	2bn/	2d\	2.g/	4.bn\	lud
8F\	.	.	.	8b\	któ-
8E\L	8cc/L	8c\L	.	8cc\	-ry
8BBn\J	8dd/J	8d\J	.	8dd\	Cię
*	*	*v	*v	*	*
!!LO:LB:g=original
=7	=7	=7	=7	=7
4C/	4ee/	4g 4e\	4ee\	chwa-
2E\	4cc/	2g\	4cc\	-li
.	8cc/L	.	8cc\L	Twa
.	8bn/J	.	8bn\J	.
=8	=8	=8	=8	=8
2F\	4bn/	2f\	4bn/	łas-
.	4a/	.	4a/	-ka
4F#X\	8dd/L	4a 4d\	(8dd\L	wspo-
.	8cc/J	.	8cc\J)	.
=9	=9	=9	=9	=9
2G\	4cc/	2g 2d\	4cc\	-mo-
.	4bn/	.	4bn\	-że
4G#X\	8ee/L	4b 4e\	(8ee\L	Twa
.	8dd/J	.	8dd\J)	.
=10	=10	=10	=10	=10
2A\	4dd/	2a 2e\	4dd\	łas-
.	4cc/	.	4cc\	-ka
4F\	4dd/	4a 4d\	4dd\	Twa
!!LO:LB:g=original
=11	=11	=11	=11	=11
2E\	2ee/	2g#X 2e\	4ee\	łas-
.	.	.	4ee\	-ka
8D\L	8ff/L	4a 4f\	8ff\L	Twa
8F\J	8dd/J	.	8dd\J	.
*	*v	*v	*	*
=12	=12	=12	=12
2G\	2cc 2g 2e/	4cc\	łas-
.	.	4cc\	-ka
4G 4GG/	4bn 4g 4f 4d/	4bn\	wspo-
=13	=13	=13	=13
*	*^	*	*
8GG/L	4dd 4g 4f/	2ryy	4dd\	-mo-
16AA/L	.	.	.	.
16BBn/JJ	.	.	.	.
8C/	8cc 8e/	.	8cc\	-ze.
8r	8r	.	8r	.
8D\L	8ff/L	4a\	4r	.
8F\J	8dd/J	.	.	.
*	*v	*v	*	*
=14	=14	=14	=14
8G\L	8g\L	2.r	.
16E\L	16cc\L	.	.
16C\JJ	16ee\JJ	.	.
4GG/	4gg\	.	.
4G 4GG/	4bn 4g 4f 4d/	.	.
!!LO:PB:g=original
=15	=15	=15	=15
4.c 4.C\	4.cc 4.g 4.e/	4r	.
.	.	4r	.
8r	8r	.	.
4B-X\	4cc 4g 4e/	8cc\	Od-
.	.	8ee\	-puść
=16	=16	=16	=16
2A\	2cc 2f/	(4ff\	nam
.	.	4cc\)	.
4B-\	4cc 4g 4e/	8cc\	na-
.	.	8ee\	-sze
=17	=17	=17	=17
2A\	2cc 2f/	4ff\	wi-
.	.	4cc\	-ny
4B-\	4dd 4b- 4f/	4dd\	Gdy
=18	=18	=18	=18
*	*^	*	*
2c\	4.cc 4.a/	2f\	(4.cc\	sta-
.	8a/	.	8a/)	.
4C/	8b-/L	8g\L	8b-\	-niem
.	8cc/J	8e\J	8cc\	przed
!!LO:LB:g=original
=19	=19	=19	=19	=19
2D/	2a 2f/	2ryy	4a/	To-
.	.	.	4a/	-bą
4C/	4a 4f#X/	4e-X\	8a/	Bo-
.	.	.	8a/	-że
*	*v	*v	*	*
=20	=20	=20	=20
2BB-/	2dd 2g 2d/	4dd\	w Trój-
.	.	4dd\	-cy
4BB-/	4g 4e 4c/	4g/	ie-
=21	=21	=21	=21
*	*^	*	*
4.AA/	4.cc 4.f 4.c/	2ryy	4cc\	-dy-
.	.	.	8cc\	-ny
8r	8r	.	8r	.
4A 4AA\	8cc/L	4f\	8cc\	Daj
.	8cc#X/J	.	8cc#X\	nam
=22	=22	=22	=22	=22
*	*	*	*2\right	*
2B- 2BB-\	2dd 2b-/	2.f\	2dd\	miesz-
4d 4D\	4b-/	.	4b-\	-kać
!!LO:LB:g=original
=23	=23	=23	=23	=23
2.c 2.C\	8a/L	2a 2f\	8a\	miesz-
.	8cc/J	.	8cc\	-kać
.	4ff/	.	(4ff\	z To-
.	4ee/	4b- 4g\	4ee\)	.
*	*v	*v	*	*
=24	=24	=24	=24
4c 4F\	4ff 4a 4f/	4ff\	-bą
4r	4r	4r	.
4F\	4f/	4f/	o
=25	=25	=25	=25
*	*^	*	*
2D/	2b-/	2.f\	2b-\	Bo-
4BB-/	4dd/	.	4dd\	-że
=26	=26	=26	=26	=26
2F\	2ff 2a 2f/	2ryy	2ff\	Daj!
*clefG2	*	*	*	*
4f/	4ff/	4ff\	4r	.
!!LO:LB:g=original
=27	=27	=27	=27	=27
2dd\	2bb-/	2.ff\	2.r	.
4b-\	4ddd/	.	.	.
*	*v	*v	*	*
=28	=28	=28	=28
2.f/	2.ccc 2.aa 2.ff\	2.r	.
==	==	==	==
*-	*-	*-	*-
!!!system-decoration: s1{(s2,s3)}
!!!RDF**kern: > = above
!!!RDF**kern: < = below
!!!ENC: Marta Lawrence
!!!END: 2021-06-27
!!!ENC: Tomasz Grochalski
!!!END: 2021-06-20
